src/icons/main-depricate.svg

<svg enable-background="new 0 0 14 13" viewBox="0 0 14 13" xmlns="http://www.w3.org/2000/svg"><path d="m1.9 12.1h3.7v-1.9h-3.7zm-1.2-2.8c-.4 0-.7.3-.7.6v2.5c0 .3.3.6.7.6h6.1c.4 0 .7-.3.7-.6v-2.5c0-.3-.3-.6-.7-.6zm0-4.7c-.4 0-.7.3-.7.7v2.5c0 .3.3.6.7.6h6.1c.4 0 .7-.3.7-.6v-2.5c0-.3-.3-.6-.7-.6h-6.1zm7.9-4.6-2 1.7 2 1.7v-1.1h3.4c.4 0 .7.3.7.6v7.5c0 .3-.3.6-.7.6h-4.1c-.4 0-.7.2-.7.6 0 .3.3.6.7.6h4.1c1.1 0 2-.8 2-1.7v-7.6c0-.9-.9-1.7-2-1.7h-3.4zm-7.9 0c-.4 0-.7.3-.7.6v2.5c0 .3.3.6.7.6h6.1c.4 0 .7-.3.7-.6v-2.5c0-.3-.3-.6-.7-.6z" fill="#4d5969"/></svg>

<svg viewBox="0 0 14 13" xmlns="http://www.w3.org/2000/svg"><path d="M1.9 12.1h3.7v-1.9H1.9zM.7 9.3c-.4 0-.7.3-.7.6v2.5c0 .3.3.6.7.6h6.1c.4 0 .7-.3.7-.6V9.9c0-.3-.3-.6-.7-.6zm0-4.7c-.4 0-.7.3-.7.7v2.5c0 .3.3.6.7.6h6.1c.4 0 .7-.3.7-.6V5.3c0-.3-.3-.6-.7-.6H.7zM8.6 0l-2 1.7 2 1.7V2.3H12c.4 0 .7.3.7.6v7.5c0 .3-.3.6-.7.6H7.9c-.4 0-.7.2-.7.6 0 .3.3.6.7.6H12c1.1 0 2-.8 2-1.7V2.9c0-.9-.9-1.7-2-1.7H8.6zM.7 0C.3 0 0 .3 0 .6v2.5c0 .3.3.6.7.6h6.1c.4 0 .7-.3.7-.6V.6c0-.3-.3-.6-.7-.6z" fill="#4d5969"/></svg>
